X: 1
T: Morris Wynn's Delight
M: 4/4
L: 1/8
R: reel
K: Amin
|:E|AcBd c>BA B/c/|d>edc BB/c/dB|cdec f>edc|1BA^G/A/B/^G/ A3:|2BA^G/A/B/^G/ A3^G/A/||
B>cBA ^G/A/B/c/ BA|^Gece dc d/e/f/g/|aefd ecdB|cA B/c/d/c/ B/c/B/A/ ^GE|
AcBd c>BA B/c/|d>edc BB/c/dB|cdec f>edc|BA^G/A/B/^G/ A3||
